static/assets/img/icons/theme/communication/chat-1.svg

<svg height="24" viewBox="0 0 24 24" width="24" xmlns="http://www.w3.org/2000/svg"><g fill="none" fill-rule="evenodd"><path d="m0 0h24v24h-24z" opacity="0"/><g fill="#000"><path d="m5 15-2 6.5 6.5-2z" opacity=".3"/><path d="m13.5 21c-5.24670512 0-9.5-4.2532949-9.5-9.5 0-5.24670512 4.25329488-9.5 9.5-9.5 5.2467051 0 9.5 4.25329488 9.5 9.5 0 5.2467051-4.2532949 9.5-9.5 9.5zm-5-8c.82842712 0 1.5-.6715729 1.5-1.5s-.67157288-1.5-1.5-1.5-1.5.6715729-1.5 1.5.67157288 1.5 1.5 1.5zm5 0c.8284271 0 1.5-.6715729 1.5-1.5s-.6715729-1.5-1.5-1.5-1.5.6715729-1.5 1.5.6715729 1.5 1.5 1.5zm5 0c.8284271 0 1.5-.6715729 1.5-1.5s-.6715729-1.5-1.5-1.5-1.5.6715729-1.5 1.5.6715729 1.5 1.5 1.5z"/></g></g></svg>

<svg width="24px" height="24px" viewBox="0 0 24 24" version="1.1" xmlns="http://www.w3.org/2000/svg" xmlns:xlink="http://www.w3.org/1999/xlink">
    <title>Icon For Chat#1</title>
    <g stroke="none" stroke-width="1" fill="none" fill-rule="evenodd">
        <rect opacity="0" x="0" y="0" width="24" height="24"></rect>
        <polygon fill="#000000" opacity="0.3" points="5 15 3 21.5 9.5 19.5"></polygon>
        <path d="M13.5,21 C8.25329488,21 4,16.7467051 4,11.5 C4,6.25329488 8.25329488,2 13.5,2 C18.7467051,2 23,6.25329488 23,11.5 C23,16.7467051 18.7467051,21 13.5,21 Z M8.5,13 C9.32842712,13 10,12.3284271 10,11.5 C10,10.6715729 9.32842712,10 8.5,10 C7.67157288,10 7,10.6715729 7,11.5 C7,12.3284271 7.67157288,13 8.5,13 Z M13.5,13 C14.3284271,13 15,12.3284271 15,11.5 C15,10.6715729 14.3284271,10 13.5,10 C12.6715729,10 12,10.6715729 12,11.5 C12,12.3284271 12.6715729,13 13.5,13 Z M18.5,13 C19.3284271,13 20,12.3284271 20,11.5 C20,10.6715729 19.3284271,10 18.5,10 C17.6715729,10 17,10.6715729 17,11.5 C17,12.3284271 17.6715729,13 18.5,13 Z" fill="#000000"></path>
    </g>
</svg>
